X: 1860
T: Ta-be-key Sinemde
C: Dilhayat Kalfa
O: Turkey
F: http://compmusic.upf.edu/node/140
N: mahur--beste--devrikebir--ta-be-key_sinemde--dilhayat_kalfa
N: makam= mahur
N: form= beste
N: usul= devrikebir = 28/4
M: 28/4
L: 1/16
K: C ^9/8f   
Q: 1/4=66
%%MIDI tuningsystem comma53
g3f e2f2 g8  | f2g2 a2b2 g2c'2 b2a2  | \
w:   |   | 
g2f2 e2g2 f4 g2f2  | e2f2 g4 g2z2 e2f2  | 
w:   |   | 
g2a2 g2f2 f2e4g2  | f2g2 f2e2 d4 g2=fe  | \
w:   |   | 
d2^cB c2d2 c6d2  | 
w:   | 
B4 ^c2de d2e=f edc2  | ^c2B4d2 c2d2 c2B2  | \
w:   |   | 
A6c2 B2A2 G2F2  | 
w:   | 
G8 z4 e2f2  | g2a2 g2f2 g4 a4  | a2g4f2 e2f2 g2ab  | \
w:   |   |   | 
a2g2 f2ag g6z2  | 
w:   | 
g3f e2f2 g8  | g4 a4 a2g2 f2e2  | d4 b4 a2g2 f2ag  | \
w:   |   |   | 
g8 z4 e2f2  | 
w:   | 
g6f2 a2g2 f2e2  | d3c g3=f f3e e2ed  | \
w:   |   | 
z2e2 d2c2 _1/4B2B^A B8 c4 B2A2 G4  | 
w:   | 
_1/4B8 ^A2B2 c2d2  | e2d2 c2_1/4B2 ^A2B2 d2c2  | \
w:   |   | 
_1/4B2^A2 G4 B8  | ^A2_1/4B2 c2d2 e2d2 c2B2  | 
w:   |   | 
c2_1/4BA A8 G4  | A4 B2A2 A2G2 G2^F2  | \
w:   |   | 
^F3E D4 c2_1/4B^A B6A2 G4 B8  | 
w:   | 
^A2_1/4B2 c2d2 e2d2 c2B2  | ^A2_1/4B2 d2c2 B2A2 G4  | \
w:   |   | 
_1/4B8 ^A2B2 c2d2  | e2d2 c2_1/4B2 c2BA A8 G4 A4 B2A2  | 
w:   |   | 
A2G2 G2^F2 F3E D6z2 d6^c2 B2c2  | \
w:   | 
d6d4a4a2  | g4 =f2f2 e2e2 d2d2  | 
w:   |   | 
c2_1/4B4_7/8e2 d2^f2 edd3cc2 cBB8z4g4=e2 ^9/8f2g2 a2g2  | \
w:   | 
f2f2 e4 g2f2 g2f2  | 
w:   | 
e2d6 a2a2 g4  | =f2f2 e2e2 d2d2 c2d2  | \
w:   |   | 
e2=f2 e2d2 c2B2 A4  | c2B2 c2B2 A2G4B2  | 
w:   |   | 
A2A2 G2F2 AGG6  | z2g3fe2 f2g8f2 g2a2 b2g2 c'2b2  | \
w:   |   | 
a2g2 f2e2 g2f4g2  | 
w:   | 
f2e2 f2g4g2 z2e2  | f2g2 a2g2 f2f2 e4  | \
w:   |   | 
g2f2 g2f2 e2d4g2  | 
w:   | 
=fed2 ^cBc2 d2c6  | d2B4^c2 ded2 e=fed  | \
w:   |   | 
^c2c2 B4 d2c2 d2c2  | 
w:   | 
B2A6 c2B2 A2G2  | F2G8z4e2  | f2g2 a2g2 f2g4a4a2 g4 f2e2 f2g2  | 
w:   |   |   | 
aba2 g2f2 agg6  | z2g3fe2 f2g8g4a4a2 g2f2  | \
w:   |   | 
e2d4b4a2 g2f2  | 
w:   | 
agg8z4e2  | f2g6 f2a2 g2f2  | e2d3cg3=ff3ee2  | \
w:   |   |   | 
edz2 e2d2 c2_1/4B2 B^AB8c4B2 A2G4B8A2 B2c2  | 
w:   | 
d2e2 d2c2 _1/4B2^A2 B2d2  | c2_1/4B2 ^A2G4B8A2 B2c2 d2e2 d2c2  | \
w:   |   | 
_1/4B2c2 BAA8G4A4=B2 A2A2 G2G2  | 
w:   | 
^F2F3ED4c2 _1/4B^AB6 A2G4B8A2 B2c2 d2e2 d2c2  | \
w:   | 
_1/4B2^A2 B2d2 c2B2 A2G4B8A2 B2c2  | 
w:   | 
d2e2 d2c2 _1/4B2c2 BAA8G4A4B2  | A2A2 G2G2 ^F2F3ED6 z2d6 ^c2B2  | 
w:   |   | 
^c2d6 d4 a4  | a2g4=f2 f2e2 e2d2  | d2c2 _1/4B4 _7/8e2d2 ^f2ed  | \
w:   |   |   | 
d3c c2c_1/4B B8  | 
w:   | 
z4 g4 e2f2 g2a2  | g2f2 f2e4g2 f2g2  | \
w:   |   | 
f2e2 d6a2 a2g4=f2 f2e2 e2d2 d2c2  | 
w:   | 
d2e2 =f2e2 d2c2 B2A4c2 B2c2 B2A2 G4  | \
w:   | 
B2A2 A2G2 F2AG G6z2 G4 A2B2 c8 z2c4c2 d2e4d2 c4 e4 d2c2  | 
w:   | 
B2dc c8 c4  | e4 d2c4B2 B2A4B2 A2B4A2 G4  | \
w:   |   | 
B4 A2G2 F2AG G6z2 G4 A2B2 c8 z2c4c2 d2e4d2 c4 e4 d2c2  | 
w:   | 
B2dc c8 c4  | e4 d2c4B2 B2A4B2 A2B4A2 G4  | \
w:   |   | 
B4 A2G2 F2AG G6z2 G4 A2B2 c8 c4 e4 d2c2  | 
w:   | 
B2A2 G4 c4 d2c2  | B2dc c6z2 z4  | c2d2 d2c4B2 B2A4B2 A2G2 d2c2 c2B4A2 z2B2 A2G2 ^F3E  | 
w:   |   |   | 
E4 c8 G4  | c6z2 B2c2 d2=f2  | e2d2 c2B2 A2B2 d2c2  | \
w:   |   |   | 
B2A2 G4 c8  | 
w:   | 
B2c2 d2=f2 e2d2 c2B2  | c2BA A8 d4  | \
w:   |   | 
c2B4A2 G2F2 G2A2  | BAG^F E4 c2_1/4B^A B6A2 G4 B8  | 
w:   |   | 
^A2_1/4B2 c2d2 e2d2 c2B2  | ^A2_1/4B2 d2c2 B2A2 G4  | \
w:   |   | 
_1/4B8 ^A2B2 c2d2  | e2d2 c2_1/4B2 c2BA A8 G4 A4 B2A2  | 
w:   |   | 
A2G2 G2^F2 F3E D6z2 d3^c B2c2 d8 d4 a4 a2g4=f2 f2e2 e2d2 d2=c2  | 
w:   | 
_1/4B4 _7/8e2d2 ^f2ed d3c  | c2c_1/4B B8 z4  | \
w:   |   | 
g4 e2f2 g2a2 g2f2  | f2e4g2 f2g2 f2e2  | 
w:   |   | 
d6a2 a2g4=f2  | =f2e2 e2d2 d2c2 d2e2  | \
w:   |   | 
=f2e2 d2c2 B2A4c2  | B2c2 B2A2 G4 B2A2  | 
w:   |   | 
A2G2 F2AG G6z2  | |


